X:1
T: George Gordon (Buchan, Aberdeenshire)
C:Alexander Walker
R:Strathspey
Q: 128
K:Gm
M:4/4
L:1/16
|:F2|DG3 G3A B3c d3g|f3d c3B AF3 F3A|DG3 G3A B3c d3c|B3G BAG^F G4 G2F2|
DG3 G3A B3c d3g|f3d c3B AF3 F3A|DG3 G3A B3c d3c|B3G BAG^F G4 G2F2|
Gg3 g3f g3d B3G|Ff3 f3g f3d c3A|Gg3 g3f d3c B3A|((3B2d2B2) ((3A2B2A2) G4 G2F2|
Gg3 g3f g3d B3G|Ff3 f3g f3d c3A|G3B A3c B3d c3e|d3g f3a bg3 g2:|
